icons/Map/map-pin-add-fill.svg

<svg viewBox="0 0 24 24" xmlns="http://www.w3.org/2000/svg"><path d="M18.364 17.364L12 23.7279L5.63604 17.364C2.12132 13.8492 2.12132 8.15076 5.63604 4.63604C9.15076 1.12132 14.8492 1.12132 18.364 4.63604C21.8787 8.15076 21.8787 13.8492 18.364 17.364ZM11 10H8V12H11V15H13V12H16V10H13V7H11V10Z"/></svg>

<svg xmlns="http://www.w3.org/2000/svg" viewBox="0 0 24 24">
    <g>
        <path fill="none" d="M0 0h24v24H0z"/>
        <path d="M18.364 17.364L12 23.728l-6.364-6.364a9 9 0 1 1 12.728 0zM11 10H8v2h3v3h2v-3h3v-2h-3V7h-2v3z"/>
    </g>
</svg>
